X:1
T: The Drummer
C:
R:Reel
Q: 232
K:Am
M:4/4
L:1/8
|:E|AB cA E2 E^F|GA Bc dB GB|AB cA E2 Ef|ed cB A2 AE|
AB cA E2 E^F|GA Bc dB GB|AB cA E2 Ef|ed cB A2 AB|
c2 ce d2 de|c2 ce dB GB|c2 ce d2 df|ed cB A3B|
c2 ce d2 de|c2 ce dB GB|cc ce dd df|ed cB A2 A:|
